X:125
T:Slow March. JJo.125
S:J.Jones MS,1801,N.Shrops.
A:N Shropshire
Z:Neil Brookes 2006
M:4/4
L:1/8
Q:1/4=120
K:C
e>f|g3c’e3g|c2c>cc2d2|e>gc’>b a>gf>e|d>gB>d G2e>f|!
{a}g2c’>g {f}e2g>e|c2c>cc2e>f|agfe d2e2|f2f>ff2::!
B>c|d>cd>e gfed|e>de>f agfe|f3ag3c’|fdeg cBAG|!
c3e d>cd>e|f>ga>bc’2e>f|g>c’e>g {a}g>f{f}e>d|c2c>cc2:|

